Newaita-dark/actions/24/format-add-node.svg

<svg height="24" viewBox="0 0 24 24" width="24" xmlns="http://www.w3.org/2000/svg"><g fill="#e0e0e0"><path d="m14.882812 2.171875v6.945313h6.949219v-5.953126c0-.550781-.445312-.992187-.992187-.992187zm1.984376 1.984375h2.480468c.277344 0 .496094.222656.496094.496094v2.480468h-2.976562zm0 0"/><path d="m8.929688 2.171875v6.945313h-6.945313v-5.953126c0-.550781.441406-.992187.992187-.992187zm-1.984376 1.984375h-2.480468c-.273438 0-.496094.222656-.496094.496094v2.480468h2.976562zm0 0"/><path d="m8.929688 22.019531v-6.949219h-6.945313v5.957032c0 .546875.441406.992187.992187.992187zm-1.984376-1.988281h-2.480468c-.273438 0-.496094-.21875-.496094-.496094v-2.480468h2.976562zm0 0"/><path d="m7.9375 17.550781h4.960938v1.984375h-4.960938zm0 0"/><path d="m7.9375 4.652344h7.9375v1.984375h-7.9375zm0 0"/><path d="m6.449219 8.125v7.9375h-1.984375v-7.9375zm0 0"/><path d="m19.347656 8.125v4.960938h-1.984375v-4.960938zm0 0"/><path d="m15.378906 17.550781h5.957032c.273437 0 .496093.222657.496093.496094v.992187c0 .277344-.222656.496094-.496093.496094h-5.957032c-.273437 0-.496094-.21875-.496094-.496094v-.992187c0-.273437.222657-.496094.496094-.496094zm0 0"/><path d="m19.347656 15.566406v5.957032c0 .273437-.21875.496093-.496094.496093h-.992187c-.273437 0-.496094-.222656-.496094-.496093v-5.957032c0-.273437.222657-.496094.496094-.496094h.992187c.277344 0 .496094.222657.496094.496094zm0 0"/></g></svg>

<?xml version="1.0" encoding="UTF-8"?>
<svg xmlns="http://www.w3.org/2000/svg" xmlns:xlink="http://www.w3.org/1999/xlink" width="24px" height="24px" viewBox="0 0 24 24" version="1.1">
<g id="surface1">
<path style=" stroke:none;fill-rule:nonzero;fill:rgb(87.843138%,87.843138%,87.843138%);fill-opacity:1;" d="M 14.882812 2.171875 L 14.882812 9.117188 L 21.832031 9.117188 L 21.832031 3.164062 C 21.832031 2.613281 21.386719 2.171875 20.839844 2.171875 Z M 16.867188 4.15625 L 19.347656 4.15625 C 19.625 4.15625 19.84375 4.378906 19.84375 4.652344 L 19.84375 7.132812 L 16.867188 7.132812 Z M 16.867188 4.15625 "/>
<path style=" stroke:none;fill-rule:nonzero;fill:rgb(87.843138%,87.843138%,87.843138%);fill-opacity:1;" d="M 8.929688 2.171875 L 8.929688 9.117188 L 1.984375 9.117188 L 1.984375 3.164062 C 1.984375 2.613281 2.425781 2.171875 2.976562 2.171875 Z M 6.945312 4.15625 L 4.464844 4.15625 C 4.191406 4.15625 3.96875 4.378906 3.96875 4.652344 L 3.96875 7.132812 L 6.945312 7.132812 Z M 6.945312 4.15625 "/>
<path style=" stroke:none;fill-rule:nonzero;fill:rgb(87.843138%,87.843138%,87.843138%);fill-opacity:1;" d="M 8.929688 22.019531 L 8.929688 15.070312 L 1.984375 15.070312 L 1.984375 21.027344 C 1.984375 21.574219 2.425781 22.019531 2.976562 22.019531 Z M 6.945312 20.03125 L 4.464844 20.03125 C 4.191406 20.03125 3.96875 19.8125 3.96875 19.535156 L 3.96875 17.054688 L 6.945312 17.054688 Z M 6.945312 20.03125 "/>
<path style=" stroke:none;fill-rule:nonzero;fill:rgb(87.843138%,87.843138%,87.843138%);fill-opacity:1;" d="M 7.9375 17.550781 L 12.898438 17.550781 L 12.898438 19.535156 L 7.9375 19.535156 Z M 7.9375 17.550781 "/>
<path style=" stroke:none;fill-rule:nonzero;fill:rgb(87.843138%,87.843138%,87.843138%);fill-opacity:1;" d="M 7.9375 4.652344 L 15.875 4.652344 L 15.875 6.636719 L 7.9375 6.636719 Z M 7.9375 4.652344 "/>
<path style=" stroke:none;fill-rule:nonzero;fill:rgb(87.843138%,87.843138%,87.843138%);fill-opacity:1;" d="M 6.449219 8.125 L 6.449219 16.0625 L 4.464844 16.0625 L 4.464844 8.125 Z M 6.449219 8.125 "/>
<path style=" stroke:none;fill-rule:nonzero;fill:rgb(87.843138%,87.843138%,87.843138%);fill-opacity:1;" d="M 19.347656 8.125 L 19.347656 13.085938 L 17.363281 13.085938 L 17.363281 8.125 Z M 19.347656 8.125 "/>
<path style=" stroke:none;fill-rule:nonzero;fill:rgb(87.843138%,87.843138%,87.843138%);fill-opacity:1;" d="M 15.378906 17.550781 L 21.335938 17.550781 C 21.609375 17.550781 21.832031 17.773438 21.832031 18.046875 L 21.832031 19.039062 C 21.832031 19.316406 21.609375 19.535156 21.335938 19.535156 L 15.378906 19.535156 C 15.105469 19.535156 14.882812 19.316406 14.882812 19.039062 L 14.882812 18.046875 C 14.882812 17.773438 15.105469 17.550781 15.378906 17.550781 Z M 15.378906 17.550781 "/>
<path style=" stroke:none;fill-rule:nonzero;fill:rgb(87.843138%,87.843138%,87.843138%);fill-opacity:1;" d="M 19.347656 15.566406 L 19.347656 21.523438 C 19.347656 21.796875 19.128906 22.019531 18.851562 22.019531 L 17.859375 22.019531 C 17.585938 22.019531 17.363281 21.796875 17.363281 21.523438 L 17.363281 15.566406 C 17.363281 15.292969 17.585938 15.070312 17.859375 15.070312 L 18.851562 15.070312 C 19.128906 15.070312 19.347656 15.292969 19.347656 15.566406 Z M 19.347656 15.566406 "/>
</g>
</svg>
